assets/icons/qvision/event_busy.svg

<svg xmlns="http://www.w3.org/2000/svg" height="24" viewBox="0 0 24 24" width="24"><path d="M0 0h24v24H0z" fill="none"/><path d="M9.31 17l2.44-2.44L14.19 17l1.06-1.06-2.44-2.44 2.44-2.44L14.19 10l-2.44 2.44L9.31 10l-1.06 1.06 2.44 2.44-2.44 2.44L9.31 17zM19 3h-1V1h-2v2H8V1H6v2H5c-1.11 0-1.99.9-1.99 2L3 19c0 1.1.89 2 2 2h14c1.1 0 2-.9 2-2V5c0-1.1-.9-2-2-2zm0 16H5V8h14v11z"/></svg>

<svg width="24" height="24" viewBox="0 0 24 24" fill="none" xmlns="http://www.w3.org/2000/svg">
<g clip-path="url(#clip0_147_5953)">
<path d="M9.31 17L11.75 14.56L14.19 17L15.25 15.94L12.81 13.5L15.25 11.06L14.19 10L11.75 12.44L9.31 10L8.25 11.06L10.69 13.5L8.25 15.94L9.31 17ZM19 3H18V1H16V3H8V1H6V3H5C3.89 3 3.01 3.9 3.01 5L3 19C3 20.1 3.89 21 5 21H19C20.1 21 21 20.1 21 19V5C21 3.9 20.1 3 19 3ZM19 19H5V8H19V19Z" fill="#323232"/>
</g>
<defs>
<clipPath id="clip0_147_5953">
<rect width="24" height="24" fill="white"/>
</clipPath>
</defs>
</svg>
